X:8
T:Engelska efter B\"atsman Dristig
N:From the playing of B\"atsman Dristig, Bohusl=E4n county.
M:2/4
R:Engelska
S:jonas_liljestrom <consolamentum@spray.se> tradtunes 2005-6-15
K:D
|:F2AF G2BG|F2Ad dBAG|FAdf agec|edcB AGFE|F2AF G2BG|F2Ad dBAG|FAdf
agec|d2d2 d4:||:c2ec defd|efge gece|g2g2 f2df|edcB AGFE|F2AF G2BG|F2Ad
dBAG|FAdf agec|d2d2 d4:||
